X:1
T:第二圆舞曲
T:The Second Waltz
T:‘Eyes Wide Shut’ (1999) /  ‘번지 점프를 하다’ (2001)
T:Dmitri Shostakovichi (1906 - 1975)
T:中南民族大学交响乐团
T:中南民族大学交响乐团
T:中南民族大学交响乐团
T:中南民族大学交响乐团
C:肖斯塔科维奇
Z:中南民族大学交响乐团
%%score 1 { ( 2 4 ) | ( 3 5 ) }
L:1/8
Q:1/4=160
M:3/4
K:Eb
V:1 treble nm="Flute" snm="Fl."
V:2 treble nm="Piano" snm="Pno."
V:4 treble 
V:3 bass 
V:5 bass 
V:1
 z6 | z6 | z6 | z6 |!p!"^1" (g6 | e4 d2 | c6- | c2) (c2 d2 | e2 c2 e2 | g4 a2 | g6 | f6) | (f6 | %13
 d4 c2 | =B6- | B2) G2 =B2 | d2 =B2 d2 | f2 g2 a2 | ^f6 | g6 |!p! (e'6 | d'4 c'2 | b4 a2 | f6) | %24
 (d'6 | c'4 b2) | (b4 g2) |!p! z2 .e2 .f2 | .g2 (((gf))) (((ga))) | .f2 (((fe))) (((fg))) | %30
 .e2 z2 .g2 | z2 .e2 .f2 | .g2 (((gf))) (((ga))) | .f2 (((fe))) (((fg))) | .e2 z2 .g2 | %35
 z2 .c2 .d2 | .e2 (((ed))) (((ef))) | .d2 (((dc))) (((de))) | .c2 z4 | z6 | z6 | z6 |"^2" z6 | z6 | %44
 z6 | z6 | z6 | z6 | z6 | z6 | z6 | z6 | z6 | z6 | z6 | z6 | z6 | z6 |!p! (e'6 | d'4 c'2 | b4 a2 | %61
 f6) | (d'6 | c'4 b2) | (b4 g2) |!p! z2 .e2 .f2 | .g2 (((gf))) (((ga))) | .f2 (((fe))) (((fg))) | %68
 .e2 z2 .g2 | z2 .e2 .f2 | .g2 (((gf))) (((ga))) | .f2 (((fe))) (((fg))) | .e2 z2 .g2 | %73
 z2 .c2 .d2 | .e2 (((ed))) (((ef))) | .d2 (((dc))) (((de))) | .c2 z4 | z4!f!!f!"^3" !>!B2 | e6 | %79
 e6 | ((e2 d2 c2 | B2 G2 B2)) | d6 | d6 | ((c2 B2 G2 | E2 F2 G2)) | c6 | B6 | ((B2 A2 G2 | %89
 F2 E2 F2)) | ((G4 B2)) | ((F4 B2)) | ((G4 B2)) |[Q:1/4=140] ((!tenuto!e4 !tenuto!f2)) | %94
[Q:1/4=160] !tenuto!g6 | g6 | ((g2 f2 e2 | d2 B2 d2)) | f6 | f6 | ((f2 e2 d2 | c2 G2 B2)) | e6 | %103
 e6 | e6 | ((f2 e2 f2 | g4 e2)) | (B2 c2 d2 | e2 f2 e2 | _d2 c2 =B2) |"^4" (c4 E2- | E2 D2 E2) | %112
 (c4 E2- | E2 _d2 c2) | (c4 B2) | (=A4 B2) | (f4 e2) | (_d2 c2 B2) | (c4 E2- | E2 D2 E2) | %120
 (c4 E2- | E2 F2 G2) | (A4 B2) | (c4 c2) | d2 c2 d2 | !fermata!e2 (6:4:6(def gab | c'4) e2- | %127
 e2 d2 e2 | (c'4 e2- | e2 _d'2 c'2) | (c'4 b2) | (=a4 b2) | (f'4 e'2) | (_d'2 c'2 b2) | (c'4 e2- | %135
 e2 d2 e2) | (c'4 e2- | e2 f2 g2) | (a4 b2) | ((c'4 c'2) | d'2 c'2 d'2 | e'6-) | %142
!>(! (!fermata!e'4 !fermata!d'2)!>)! | z6 | z6 | z6 | z6 |!mf!"^5" (g6 | e4 d2 | c6- | c2) (c2 d2 | %151
 e2 c2 e2 | g4 a2 | g6 | f6) | (f6 | d4 c2 | =B6- | B2) G2 =B2 | d2 =B2 d2 | f2 g2 a2 | ^f6 | g6 | %163
!p!!p! ((e'6 | d'4 c'2 | b4 a2 | f6)) | (d'6 | c'4 b2) | (b4 g2) |!f! z2 .e2 .f2 | %171
 .g2 ((((((gf)))))) ((((ga)))) | .f2 ((((fe)))) ((((fg)))) | .e2 z2 .g2 | z2 .e2 .f2 | %175
 .g2 ((((((gf)))))) ((((ga)))) | .f2 ((((fe)))) ((((fg)))) | .e2 z2 .g2 | z2 .c'2 .d'2 | %179
 .e'2 ((((e'd')))) ((e'f')) | .d'2 ((d'c')) ((d'e')) | .c'2 z2 z2 | z6 |] %183
V:2
!p! z2 [CEG]2 [CEG]2 | z2 [CEG]2 [CEG]2 | z2 [CEG]2 [CEG]2 | z2 [CEG]2 [CEG]2 | z2 [CEG]2 [CEG]2 | %5
 z2 [CEG]2 [CEG]2 | z2 [CEG]2 [CEG]2 | z2 [CEG]2 [CEG]2 | z2 [CEG]2 [CEG]2 | z2 [CEG]2 [CEG]2 | %10
 z2 [A,CDF]2 [A,CDF]2 | z2 [A,CDF]2 [A,CDF]2 | z2 [A,CDF]2 [A,CDF]2 | z2 [A,CDF]2 [A,CDF]2 | %14
 z2 [=B,DFG]2 [B,DFG]2 | z2 [=B,DFG]2 [B,DFG]2 | z2 [=B,DFG]2 [B,DFG]2 | z2 [=B,DFG]2 [B,DFG]2 | %18
 z2 [CE^F]2 [CEF]2 | z2 [CEG]2 [CEG]2 | z2 [CEG]2 [CEG]2 | z2 [CEG]2 [CEG]2 | z2 [A,CF]2 [A,CF]2 | %23
 z2 [A,CF]2 [A,CF]2 | z2 [A,B,DF]2 [A,B,DF]2 | z2 [A,B,DF]2 [A,B,DF]2 | z2 [B,EG]2 [B,EG]2 | %27
 z2 [ce]2 [df]2 | .[eg]2 gf ga | .[df]2 fe fg | .e2 z2 .g2 | z2 ([ce]2 [df]2 | .[eg]2) gf ga | %33
 .[df]2 fe fg | .e2 z2 .g2 | z2 ([Ac]2 [=Bd]2 | .e2) ed ef | .d2 dc de |!mf! c2 [CEG]2 [CEG]2 | %39
 z2 [CEG]2 [CEG]2 | z2 [CEG]2 [CEG]2 | z2 [CEG]2 [CEG]2 | (g6 | e4 d2 | c6) | z2 (c2 d2 | %46
 e2 c2 e2 | g4 a2 | g6 | f6) | (f6 | d4 c2 | =B6) | z2 (G2 =B2 | d2 =B2 d2 | f2 g2 a2 | ^f6 | g6) | %58
!mf! (e'6 | d'4 c'2 | b4 a2 | f6) | (d'6 | c'4 b2 | b6) | z2 [ce]2 [df]2 | .[eg]2 gf ga | %67
 .[df]2 fe fg | .e2 z2 .g2 | z2 ([ce]2 [df]2 | .[eg]2) gf ga | .[df]2 fe fg | .e2 z2 .g2 | %73
 z2 ([Ac]2 [=Bd]2 | .e2) ed ef | .d2 dc de |!mf! c2 [CEG]2 [CEG]2 |!mf! [EG]2 z2!f! !>![Ad]2 | %78
 [Ge]6!f! | [Ge]6 | ([Ge]2 [Bd]2 [Ac]2 | [GB]2 [EG]2 [GB]2) | [Bd]6 | [Bd]6 | ([Ac]2 [GB]2 [EG]2 | %85
 [CE]2 [DF]2 [EG]2) | [Ac]6 | [GB]6 | ([GB]2 [FA]2 [=EG]2 | F2 E2 F2) | ([EG]4 [GB]2) | %91
 ([DF]4 [AB]2) | ([EG]4 [GB]2) | (!tenuto![Ge]4 !tenuto![Bf]2) | !tenuto![eg]6 | [eg]6 | %96
 ([eg]2 [df]2 [ce]2 | [Bd]2 [GB]2 [Bd]2) | [df]6 | [df]6 | ([df]2 [ce]2 [Bd]2 | %101
 [Ac]2 [EG]2 [GB]2) | [Ge]6 | [Ge]6 | [Ae]6 | ([Af]2 [Ge]2 [Af]2 | [Bg]4 [Ge]2) | %107
 ([DB]2 [Ec]2 [Fd]2 | [Ge]2) z4 | [eg_d']2 z4 | ([ac']4 [ce]2- | [ce]2 [=Bd]2 [ce]2) | %112
 ([ac']4 [ce]2- | [ce]2 [f_d']2 c'2) | g6 | g6 | ([bf']4 [_d'e']2) | (g4 f2) | [ac']4 [ce]2 | %119
 [ce]2 [=Bd]2 [ce]2 | ([ac']4 [ce]2- | [ce]2 [_df]2 [eg]2) | ([fa]4 [gb]2) | ([ac']4 [ac']2) | %124
 ([bd']2 [ac']2 [bd']2 | !tenuto![be']4) z2 | z EAcAE | z EAcAE | z EAcAE | z EAcAE | z EG_dFE | %131
 z EG_dFE | z EG_dFE | z EG_dFE | z EAcAE | z EAcAE | z EAcAE | z EAcAE | z FA_dAF | z FAdAF | %140
 (fg) .a.b .c'.d' | (e'f') .e'.d' .e'.f' |!>(!!>(!!>(!!>(!!>(! !fermata!g'6!>)!!>)!!>)!!>)!!>)! | %143
!p! z2 [CEG]2 [CEG]2 | z2 [CEG]2 [CEG]2 | z2 [CEG]2 [CEG]2 | z2 [CEG]2 [CEG]2 | z2 [CEG]2 [CEG]2 | %148
 z2 [CEG]2 [CEG]2 | z2 [CEG]2 [CEG]2 | z2 [CEG]2 [CEG]2 | z2 [CEG]2 [CEG]2 | z2 [CEG]2 [CEG]2 | %153
 z2 [A,CDF]2 [A,CDF]2 | z2 [A,CDF]2 [A,CDF]2 | z2 [A,CDF]2 [A,CDF]2 | z2 [A,CDF]2 [A,CDF]2 | %157
 z2 [=B,DFG]2 [B,DFG]2 | z2 [=B,DFG]2 [B,DFG]2 | z2 [=B,DFG]2 [B,DFG]2 | z2 [=B,DFG]2 [B,DFG]2 | %161
 z2 [CE^F]2 [CEF]2 | z2 [CEG]2 [CEG]2 | z2 [CEG]2 [CEG]2 | z2 [CEG]2 [CEG]2 | z2 [A,CF]2 [A,CF]2 | %166
 z2 [A,CF]2 [A,CF]2 | z2 [A,B,DF]2 [A,B,DF]2 | z2 [A,B,DF]2 [A,B,DF]2 | z2 [B,EG]2 [B,EG]2 | %170
 z2 [ce]2 [df]2 | .[eg]2 gf ga | .[df]2 fe fg | .e2 z2 .g2 | z2 ([ce]2 [df]2 | .[eg]2) gf ga | %176
 .[df]2 fe fg | .e2 z2 .g2 | z2 ([Ac]2 [=Bd]2 | .e2) ed ef | .d2 dc de | .c'2 z2 !>!g'2 | %182
 !>!c''2 z4 |] %183
V:3
 [C,,C,]2 z4 | [G,,,G,,]2 z4 | [C,,C,]2 z4 | [G,,,G,,]2 z4 | [C,,C,]2 z4 | [G,,,G,,]2 z4 | %6
 [C,,C,]2 z4 | [G,,,G,,]2 z4 | [C,,C,]2 z4 | [G,,,G,,]2 z4 | [D,,D,]2 z4 | [G,,,G,,]2 z4 | %12
 [D,,D,]2 z4 | [G,,,G,,]2 z4 | [D,,D,]2 z4 | [G,,,G,,]2 z4 | [D,,D,]2 z4 | [G,,,G,,]2 z4 | %18
 [C,,C,]2 z4 | [G,,,G,,]2 z4 | [C,,C,]2 z4 | [G,,,G,,]2 z4 | [F,,F,]2 z4 | [F,,F,]2 z4 | %24
 [B,,,B,,]2 z4 | [B,,,B,,]2 z4 | [E,,E,]2 z4 | .[A,,C,A,]2 z4 | .[G,,E,]2 z4 | .[A,,F,]2 z4 | %30
 .G,,2 .G,2 z2 | .[A,,C,A,]2 z4 | .[G,,E,]2 z4 | .[A,,F,]2 z4 | .G,,2 .G,2 z2 | %35
!mf! !tenuto![A,,F,]4 z2 | !tenuto![G,,G,]4 z2 | !tenuto![G,,F,]4 z2 | [C,,C,]2 z4 | %39
 [G,,,G,,]2 z4 | [C,,C,]2 z4 | [G,,,G,,]2 z4 | z2 [G,CE]2 [G,CE]2 | z2 [G,CE]2 [G,CE]2 | %44
 z2 [G,CE]2 [G,CE]2 | z2 [G,CE]2 [G,CE]2 | z2 [G,CE]2 [G,CE]2 | z2 [G,CE]2 [G,CE]2 | %48
 z2 [F,A,C]2 [F,A,C]2 | z2 [F,A,C]2 [F,A,C]2 | z2 [F,A,C]2 [F,A,C]2 | z2 [F,A,C]2 [F,A,C]2 | %52
 z2 [G,DF]2 [G,DF]2 | z2 [G,DF]2 [G,DF]2 | z2 [=B,DF]2 [B,DF]2 | z2 [=B,DF]2 [B,DF]2 | %56
 z2 [G,CE]2 [G,CE]2 | z2 [G,CE]2 [G,CE]2 | z2 [G,CE]2 [G,CE]2 | z2 [G,CE]2 [G,CE]2 | %60
 z2 [A,CF]2 [A,CF]2 | z2 [A,CF]2 [A,CF]2 | z2 [F,A,D]2 [F,A,D]2 | z2 [F,A,D]2 [F,A,D]2 | %64
 z2 [G,B,E]2 [G,B,E]2 | .[A,,C,A,]2 z4 | .[G,,E,]2 z4 | .[A,,F,]2 z4 | .G,,2 .G,2 z2 | %69
 .[A,,C,A,]2 z4 | .[G,,E,]2 z4 | .[A,,F,]2 z4 | .G,,2 .G,2 z2 |!mf! !tenuto![A,,F,]4 z2 | %74
 !tenuto![G,,G,]4 z2 | !tenuto![G,,F,]4 z2 | [C,,C,]2 z4 | [G,,,G,,]2 z4 | z2 [B,EG]2 [B,EG]2 | %79
 z2 [B,EG]2 [B,EG]2 | z2 [B,EG]2 [B,EG]2 | z2 [B,EG]2 [B,EG]2 | z2[K:treble] [B,DA]2 [B,DA]2 | %83
 z2 [B,DA]2 [B,DA]2 | z2 [B,EG]2 [B,EG]2 | z2 [B,EG]2 [B,EG]2 | z2 [B,C=E]2 [B,CE]2 | %87
 z2 [B,C=E]2 [B,CE]2 | z2 [CFB]2 [C=EB]2 | z2 [CEFA]2 [CEFA]2 | z2 [B,EG]2 [B,EG]2 | %91
 z2 [B,DA]2 [B,DA]2 | z2 [B,EG]2 [B,EG]2 | z2 [B,EG]2 [A,EF]2 | z2 [B,EG]2 [B,EG]2 | %95
 z2 [B,EG]2 [B,EG]2 | z2 [B,EG]2 [B,EG]2 | z2 [B,EG]2 [B,EG]2 | z2 [B,DA]2 [B,DA]2 | %99
 z2 [B,DA]2 [B,DA]2 | z2 [B,EG]2 [B,EG]2 | z2 [B,EG]2 [B,EG]2 | z2 [B,EG]2 [B,EG]2 | %103
 z2 [B,EG]2 [B,EG]2 | z2 [CEA]2 [CEA]2 | z2 [A,EF]2 [A,EF]2 | z2 [B,EG]2 [B,EG]2 | %107
 z2 [DAB]2 [DAB]2 | [EGB]2 z4 | [EG_d]2 z4 |[K:bass] A,,2 [E,A,C]2 [E,A,C]2 | %111
 E,,2 [E,A,C]2 [E,A,C]2 | A,,2 [E,A,C]2 [E,A,C]2 | E,,2 [E,A,C]2 [E,A,C]2 | %114
 B,,2 [E,G,_D]2 [E,F,D]2 | E,,2 [E,G,_D]2 [E,F,D]2 | B,,2 [E,G,_D]2 [E,F,D]2 | %117
 E,,2 [E,G,_D]2 [E,F,D]2 | A,,2 [E,A,C]2 [E,A,C]2 | E,,2 [E,A,C]2 [E,A,C]2 | %120
 A,,2 [E,A,C]2 [E,A,C]2 | E,,2 [E,A,C]2 [E,A,C]2 | _D,,2 [F,A,_D]2 [F,A,D]2 | %123
 C,,2 [F,A,=D]2 [F,A,D]2 | B,,,2 [F,A,=D]2 [F,A,D]2 | [E,G,B,]4 z2 | A,2 z4 | E,2 z4 | A,2 z4 | %129
 E,2 z4 | B,2 z4 | E,2 z4 | B,2 z4 | E,2 z4 | A,2 z4 | E,2 z4 | A,2 z4 | E,2 z4 | _D,2 z4 | %139
 C,2 z4 | B,,,2 [F,A,=D]2 [F,A,D]2 | E,,2 [E,G,B,]2 [E,G,B,]2 | G,,2 [G,=B,F]2 [G,B,F]2 | %143
 [C,,C,]2 z4 | G,,2 z4 | [C,,C,]2 z4 | [G,,,G,,]2 z4 | [C,,C,]2 z4 | [G,,,G,,]2 z4 | [C,,C,]2 z4 | %150
 [G,,,G,,]2 z4 | [C,,C,]2 z4 | [G,,,G,,]2 z4 | [D,,D,]2 z4 | [G,,,G,,]2 z4 | [D,,D,]2 z4 | %156
 [G,,,G,,]2 z4 | [D,,D,]2 z4 | [G,,,G,,]2 z4 | [D,,D,]2 z4 | [G,,,G,,]2 z4 | [C,,C,]2 z4 | %162
 [G,,,G,,]2 z4 | [C,,C,]2 z4 | [G,,,G,,]2 z4 | [F,,F,]2 z4 | [F,,F,]2 z4 | [B,,,B,,]2 z4 | %168
 [B,,,B,,]2 z4 | [E,,E,]2 z4 | .[A,,C,A,]2 z4 | .[G,,E,]2 z4 | .[A,,F,]2 z4 | .G,,2 .G,2 z2 | %174
 .[A,,C,A,]2 z4 | .[G,,E,]2 z4 | .[A,,F,]2 z4 | .G,,2 .G,2 z2 |!mf! !tenuto![A,,F,]4 z2 | %179
 !tenuto![G,,G,]4 z2 | !tenuto![G,,F,]4 z2 |[K:treble] [Ec]2 z2[K:bass] G,,2 | z6 |] %183
V:4
 x6 | x6 | x6 | x6 | x6 | x6 | x6 | x6 | x6 | x6 | x6 | x6 | x6 | x6 | x6 | x6 | x6 | x6 | x6 | %19
 x6 | x6 | x6 | x6 | x6 | x6 | x6 | x6 | x6 | c2 x4 | c2 x4 | c2 x4 | x6 | c2 x4 | c2 x4 | c2 x4 | %35
 x6 | c2 x4 | =B2 x4 | x6 | x6 | x6 | x6 | x6 | x6 | x6 | x6 | x6 | x6 | x6 | x6 | x6 | x6 | x6 | %53
 x6 | x6 | x6 | x6 | x6 | g6 | f4 e2 | d6 | c6 | [fb]6 | [df]6 | [eg]6 | x6 | c2 x4 | c2 x4 | %68
 c2 x4 | x6 | c2 x4 | c2 x4 | c2 x4 | x6 | c2 x4 | =B2 x4 | x6 | x6 | x6 | x6 | x6 | x6 | x6 | x6 | %84
 x6 | x6 | x6 | x6 | x6 | x6 | x6 | x6 | x6 | x6 | x6 | x6 | x6 | x6 | x6 | x6 | x6 | x6 | x6 | %103
 x6 | x6 | x6 | x6 | x6 | x6 | x6 | x6 | x6 | x6 | x6 | (c'4 b2) | (=a4 b2) | x6 | (_d'2 c'2 =b2) | %118
 x6 | x6 | x6 | x6 | x6 | x6 | x6 | x6 | x6 | x6 | x6 | x6 | x6 | x6 | x6 | x6 | x6 | x6 | x6 | %137
 x6 | x6 | x6 | x6 | x6 | x6 | x6 | x6 | x6 | x6 | x6 | x6 | x6 | x6 | x6 | x6 | x6 | x6 | x6 | %156
 x6 | x6 | x6 | x6 | x6 | x6 | x6 | x6 | x6 | x6 | x6 | x6 | x6 | x6 | x6 | c2 x4 | c2 x4 | c2 x4 | %174
 x6 | c2 x4 | c2 x4 | c2 x4 | x6 | c2 x4 | =B2 x4 | x6 | x6 |] %183
V:5
 x6 | x6 | x6 | x6 | x6 | x6 | x6 | x6 | x6 | x6 | x6 | x6 | x6 | x6 | x6 | x6 | x6 | x6 | x6 | %19
 x6 | x6 | x6 | x6 | x6 | x6 | x6 | x6 | x6 | x6 | x6 | x6 | x6 | x6 | x6 | x6 | x6 | x6 | x6 | %38
 x6 | x6 | x6 | x6 | C,2 x4 | G,,2 x4 | C,2 x4 | G,,2 x4 | C,2 x4 | G,,2 x4 | D,2 x4 | G,,2 x4 | %50
 D,2 x4 | G,,2 x4 | D,2 x4 | G,,2 x4 | D,2 x4 | G,,2 x4 | C,2 x4 | G,,2 x4 | C,2 x4 | G,,2 x4 | %60
 F,2 x4 | F,2 x4 | B,,2 x4 | B,,2 x4 | E,2 x4 | x6 | x6 | x6 | x6 | x6 | x6 | x6 | x6 | x6 | x6 | %75
 x6 | x6 | x6 | x6 | x6 | x6 | x6 | x2[K:treble] x4 | x6 | x6 | x6 | x6 | x6 | x6 | x6 | x6 | x6 | %92
 x6 | x6 | x6 | x6 | x6 | x6 | x6 | x6 | x6 | x6 | x6 | x6 | x6 | x6 | x6 | x6 | x6 | x6 | %110
[K:bass] x6 | x6 | x6 | x6 | x6 | x6 | x6 | x6 | x6 | x6 | x6 | x6 | x6 | x6 | x6 | x6 | x6 | x6 | %128
 x6 | x6 | x6 | x6 | x6 | x6 | x6 | x6 | x6 | x6 | x6 | x6 | x6 | x2 z4 | x6 | x6 | x6 | x6 | x6 | %147
 x6 | x6 | x6 | x6 | x6 | x6 | x6 | x6 | x6 | x6 | x6 | x6 | x6 | x6 | x6 | x6 | x6 | x6 | x6 | %166
 x6 | x6 | x6 | x6 | x6 | x6 | x6 | x6 | x6 | x6 | x6 | x6 | x6 | x6 | x6 | %181
[K:treble] x4[K:bass] x2 | x6 |] %183

